X: 343	% 96
T: the Bully Of The Town
S: Viola Ruth "Pioneer Western Folk Tunes" 1948 p.34 #3
R: march, reel
Z: 2019 John Chambers <jc:trillian.mit.edu>
M: 2/4
L: 1/8
K: G
V: 1 name="96"
D |\
D[BG][BG]>[BG] | [BG][B2G2][BG] | [BG][BG][_BG][=BG] | G3F |\
[EC][E2C2][EC] | [eG][e2G2][eG] | cc c/B/A | F2- F(F/E/) |
Dd2^c/=c/ | ccBA | G4- | G3 |:\
(B/c/) | d2- d(3(c/d/^d/) | ed AB | c2cA |\
F3 (A/B/) | c2- c(3(B/c/^c/) | dc A_B |
=B2BG |\
D3G | B2-B (3(A/B/c/) | d2- d(3(c/d/^d/) | eecA |\
E3_E | Dd2^c/=c/ | ccBA | G4- G3 :|
